X: 1484
T: Roseland Hill   #2
T: cnoc baile-na-ros.
R: reel
%S: s:2 b:12(4+8)
B: O'Neill's Music of Ireland, 1484
O: Walsh
Z: John B. Walsh, 8/22/96
M: 2/4
L: 1/16
K: G
"^A"|: G2BA GABd | e2ef edBA | G2BA GABc | dBAB [1 AFED :|[2 G2z2 "^B"|: e2eB e2z2 | edef gfeg |
| fddc defg | abaf gfed || e2eB e2z2 | edef g2fg | agfa gfeg | edef edBA |]
